static/cards/FrenchDeck/cyberwave/card_clubs_08.svg

<svg xmlns="http://www.w3.org/2000/svg" width="822" height="1122" fill="none" viewBox="0 0 822 1122"><rect width="822" height="1122" fill="#1a0033" rx="20"/><g fill="#fff066" clip-path="url(#a)"><path d="M121.008 160.92q-15.616 0-24.448-6.528t-8.832-18.304q0-8.448 4.608-14.336 4.735-6.016 12.544-8.064-14.465-5.248-14.465-19.712 0-11.52 7.808-17.664 7.936-6.272 22.785-6.272 14.847 0 22.656 6.272 7.935 6.144 7.936 17.664 0 14.464-14.464 19.712 7.808 2.047 12.416 8.064 4.736 5.888 4.736 14.336 0 11.776-8.832 18.304t-24.448 6.528m0-50.176q11.775 0 17.792-3.84 6.144-3.84 6.144-12.928 0-9.6-5.888-13.824-5.889-4.224-18.048-4.224-12.16 0-18.048 4.224-5.889 4.224-5.888 13.824 0 9.088 6.016 12.928 6.144 3.84 17.92 3.84m0 44.288q13.44 0 19.968-4.608 6.656-4.736 6.656-14.336 0-19.328-26.624-19.328t-26.624 19.328q0 9.6 6.528 14.336 6.656 4.608 20.096 4.608M141.309 231.337v-.004c0-11.782-9.224-21.333-20.603-21.333s-20.603 9.551-20.603 21.333c-11.379 0-20.603 9.552-20.603 21.334S88.724 274 100.103 274c10.386 0 18.977-7.957 20.397-18.305C121.92 266.043 130.511 274 140.897 274c11.379 0 20.603-9.551 20.603-21.333 0-11.64-9.002-21.102-20.191-21.33"/><rect width="5" height="33" x="118.5" y="251" rx="2.5"/><path d="M692.992 957.08q15.616 0 24.448 6.528t8.832 18.304q0 8.448-4.608 14.336c-3.157 4.012-7.338 6.702-12.544 8.062q14.464 5.25 14.464 19.71 0 11.52-7.808 17.67-7.935 6.27-22.784 6.27-14.847 0-22.656-6.27-7.936-6.15-7.936-17.67 0-14.46 14.464-19.71c-5.205-1.36-9.344-4.05-12.416-8.062q-4.736-5.888-4.736-14.336 0-11.776 8.832-18.304t24.448-6.528m0 50.18q-11.775 0-17.792 3.84c-4.096 2.56-6.144 6.87-6.144 12.92q0 9.6 5.888 13.83c3.926 2.81 9.942 4.22 18.048 4.22 8.107 0 14.123-1.41 18.048-4.22q5.889-4.23 5.888-13.83c0-6.05-2.005-10.36-6.016-12.92q-6.144-3.84-17.92-3.84m0-44.292q-13.44 0-19.968 4.608-6.656 4.736-6.656 14.336 0 19.328 26.624 19.328t26.624-19.328q0-9.6-6.528-14.336-6.656-4.608-20.096-4.608M672.691 886.663v.004c0 11.782 9.224 21.333 20.603 21.333s20.603-9.551 20.603-21.333c11.379 0 20.603-9.552 20.603-21.334S725.276 844 713.897 844c-10.386 0-18.977 7.957-20.397 18.305C692.08 851.957 683.489 844 673.103 844c-11.379 0-20.603 9.551-20.603 21.333 0 11.64 9.002 21.102 20.191 21.33"/><rect width="5" height="33" x="695.5" y="867" rx="2.5" transform="rotate(-180 695.5 867)"/></g><path stroke="#fff066" stroke-width="8" d="M411.779 520.935c13.001 0 23.889 11.163 23.889 25.377v3.923l3.918.081c12.786.265 23.414 11.333 23.414 25.372 0 14.214-10.889 25.377-23.89 25.377-11.873 0-21.966-9.289-23.646-21.741h-7.928c-1.68 12.452-11.773 21.741-23.646 21.741-13.001 0-23.89-11.163-23.89-25.377s10.889-25.376 23.89-25.376h4v-4c0-14.214 10.889-25.377 23.889-25.377Z"/><path fill="#fff066" d="M408.307 583.026a3.041 3.041 0 1 1 6.082 0v30.933a3.041 3.041 0 1 1-6.082 0z"/><path stroke="#fff066" stroke-width="8" d="M327.779 682.935c13.001 0 23.889 11.163 23.889 25.377v3.923l3.918.081c12.786.265 23.414 11.333 23.414 25.372 0 14.214-10.889 25.377-23.89 25.377-11.873 0-21.966-9.289-23.646-21.741h-7.928c-1.68 12.452-11.773 21.741-23.646 21.741-13.001 0-23.89-11.163-23.89-25.377s10.889-25.376 23.89-25.376h4v-4c0-14.214 10.889-25.377 23.889-25.377Z"/><path fill="#fff066" d="M324.307 745.026a3.041 3.041 0 1 1 6.082 0v30.933a3.041 3.041 0 1 1-6.082 0z"/><path stroke="#fff066" stroke-width="8" d="M494.779 682.935c13.001 0 23.889 11.163 23.889 25.377v3.923l3.918.081c12.786.265 23.414 11.333 23.414 25.372 0 14.214-10.889 25.377-23.89 25.377-11.873 0-21.966-9.289-23.646-21.741h-7.928c-1.68 12.452-11.773 21.741-23.646 21.741-13.001 0-23.89-11.163-23.89-25.377s10.889-25.376 23.89-25.376h4v-4c0-14.214 10.889-25.377 23.889-25.377Z"/><path fill="#fff066" d="M491.307 745.026a3.041 3.041 0 1 1 6.082 0v30.933a3.041 3.041 0 1 1-6.082 0z"/><path stroke="#fff066" stroke-width="8" d="M579.779 520.935c13.001 0 23.889 11.163 23.889 25.377v3.923l3.918.081c12.786.265 23.414 11.333 23.414 25.372 0 14.214-10.889 25.377-23.89 25.377-11.873 0-21.966-9.289-23.646-21.741h-7.928c-1.68 12.452-11.773 21.741-23.646 21.741-13.001 0-23.89-11.163-23.89-25.377s10.889-25.376 23.89-25.376h4v-4c0-14.214 10.889-25.377 23.889-25.377Z"/><path fill="#fff066" d="M576.307 583.026a3.041 3.041 0 1 1 6.082 0v30.933a3.041 3.041 0 1 1-6.082 0z"/><path stroke="#fff066" stroke-width="8" d="M243.779 520.935c13.001 0 23.889 11.163 23.889 25.377v3.923l3.918.081c12.786.265 23.414 11.333 23.414 25.372 0 14.214-10.889 25.377-23.89 25.377-11.873 0-21.966-9.289-23.646-21.741h-7.928c-1.68 12.452-11.773 21.741-23.646 21.741-13.001 0-23.89-11.163-23.89-25.377s10.889-25.376 23.89-25.376h4v-4c0-14.214 10.889-25.377 23.889-25.377Z"/><path fill="#fff066" d="M240.307 583.026a3.041 3.041 0 1 1 6.082 0v30.933a3.041 3.041 0 1 1-6.082 0z"/><path stroke="#fff066" stroke-width="8" d="M579.779 358.935c13.001 0 23.889 11.163 23.889 25.377v3.923l3.918.081c12.786.265 23.414 11.333 23.414 25.372 0 14.214-10.889 25.377-23.89 25.377-11.873 0-21.966-9.289-23.646-21.741h-7.928c-1.68 12.452-11.773 21.741-23.646 21.741-13.001 0-23.89-11.163-23.89-25.377s10.889-25.376 23.89-25.376h4v-4c0-14.214 10.889-25.377 23.889-25.377Z"/><path fill="#fff066" d="M576.307 421.026a3.041 3.041 0 1 1 6.082 0v30.933a3.041 3.041 0 1 1-6.082 0z"/><path stroke="#fff066" stroke-width="8" d="M243.779 358.935c13.001 0 23.889 11.163 23.889 25.377v3.923l3.918.081c12.786.265 23.414 11.333 23.414 25.372 0 14.214-10.889 25.377-23.89 25.377-11.873 0-21.966-9.289-23.646-21.741h-7.928c-1.68 12.452-11.773 21.741-23.646 21.741-13.001 0-23.89-11.163-23.89-25.377s10.889-25.376 23.89-25.376h4v-4c0-14.214 10.889-25.377 23.889-25.377Z"/><path fill="#fff066" d="M240.307 421.026a3.041 3.041 0 1 1 6.082 0v30.933a3.041 3.041 0 1 1-6.082 0z"/><path stroke="#fff066" stroke-width="8" d="M411.779 358.935c13.001 0 23.889 11.163 23.889 25.377v3.923l3.918.081c12.786.265 23.414 11.333 23.414 25.372 0 14.214-10.889 25.377-23.89 25.377-11.873 0-21.966-9.289-23.646-21.741h-7.928c-1.68 12.452-11.773 21.741-23.646 21.741-13.001 0-23.89-11.163-23.89-25.377s10.889-25.376 23.89-25.376h4v-4c0-14.214 10.889-25.377 23.889-25.377Z"/><path fill="#fff066" d="M408.307 421.026a3.041 3.041 0 1 1 6.082 0v30.933a3.041 3.041 0 1 1-6.082 0z"/><defs><clipPath id="a"><path fill="#fff" d="M46 48h722v1022H46z"/></clipPath></defs></svg>

<svg width="822" height="1122" viewBox="0 0 822 1122" fill="none" xmlns="http://www.w3.org/2000/svg">
<rect width="822" height="1122" rx="20" fill="#1A0033"/>
<g clip-path="url(#clip0_31_1659)">
<path d="M121.008 160.92C110.597 160.92 102.448 158.744 96.5595 154.392C90.6715 150.04 87.7275 143.939 87.7275 136.088C87.7275 130.456 89.2635 125.677 92.3355 121.752C95.4928 117.741 99.6742 115.053 104.88 113.688C95.2368 110.189 90.4155 103.619 90.4155 93.976C90.4155 86.296 93.0182 80.408 98.2235 76.312C103.514 72.1307 111.109 70.04 121.008 70.04C130.906 70.04 138.458 72.1307 143.664 76.312C148.954 80.408 151.6 86.296 151.6 93.976C151.6 103.619 146.778 110.189 137.136 113.688C142.341 115.053 146.48 117.741 149.552 121.752C152.709 125.677 154.288 130.456 154.288 136.088C154.288 143.939 151.344 150.04 145.456 154.392C139.568 158.744 131.418 160.92 121.008 160.92ZM121.008 110.744C128.858 110.744 134.789 109.464 138.8 106.904C142.896 104.344 144.944 100.035 144.944 93.976C144.944 87.576 142.981 82.968 139.056 80.152C135.13 77.336 129.114 75.928 121.008 75.928C112.901 75.928 106.885 77.336 102.96 80.152C99.0342 82.968 97.0715 87.576 97.0715 93.976C97.0715 100.035 99.0768 104.344 103.088 106.904C107.184 109.464 113.157 110.744 121.008 110.744ZM121.008 155.032C129.968 155.032 136.624 153.496 140.976 150.424C145.413 147.267 147.632 142.488 147.632 136.088C147.632 123.203 138.757 116.76 121.008 116.76C103.258 116.76 94.3835 123.203 94.3835 136.088C94.3835 142.488 96.5595 147.267 100.912 150.424C105.349 153.496 112.048 155.032 121.008 155.032Z" fill="#FFF066"/>
<path d="M141.309 231.337C141.309 231.336 141.309 231.335 141.309 231.333C141.309 219.551 132.085 210 120.706 210C109.327 210 100.103 219.551 100.103 231.333C88.7243 231.333 79.5 240.885 79.5 252.667C79.5 264.449 88.7243 274 100.103 274C110.489 274 119.08 266.043 120.5 255.695C121.92 266.043 130.511 274 140.897 274C152.276 274 161.5 264.449 161.5 252.667C161.5 241.027 152.498 231.565 141.309 231.337Z" fill="#FFF066"/>
<rect x="118.5" y="251" width="5" height="33" rx="2.5" fill="#FFF066"/>
<path d="M692.992 957.08C703.403 957.08 711.552 959.256 717.44 963.608C723.328 967.96 726.272 974.061 726.272 981.912C726.272 987.544 724.736 992.323 721.664 996.248C718.507 1000.26 714.326 1002.95 709.12 1004.31C718.763 1007.81 723.584 1014.38 723.584 1024.02C723.584 1031.7 720.982 1037.59 715.776 1041.69C710.486 1045.87 702.891 1047.96 692.992 1047.96C683.094 1047.96 675.542 1045.87 670.336 1041.69C665.046 1037.59 662.4 1031.7 662.4 1024.02C662.4 1014.38 667.222 1007.81 676.864 1004.31C671.659 1002.95 667.52 1000.26 664.448 996.248C661.291 992.323 659.712 987.544 659.712 981.912C659.712 974.061 662.656 967.96 668.544 963.608C674.432 959.256 682.582 957.08 692.992 957.08ZM692.992 1007.26C685.142 1007.26 679.211 1008.54 675.2 1011.1C671.104 1013.66 669.056 1017.97 669.056 1024.02C669.056 1030.42 671.019 1035.03 674.944 1037.85C678.87 1040.66 684.886 1042.07 692.992 1042.07C701.099 1042.07 707.115 1040.66 711.04 1037.85C714.966 1035.03 716.928 1030.42 716.928 1024.02C716.928 1017.97 714.923 1013.66 710.912 1011.1C706.816 1008.54 700.843 1007.26 692.992 1007.26ZM692.992 962.968C684.032 962.968 677.376 964.504 673.024 967.576C668.587 970.733 666.368 975.512 666.368 981.912C666.368 994.797 675.243 1001.24 692.992 1001.24C710.742 1001.24 719.616 994.797 719.616 981.912C719.616 975.512 717.44 970.733 713.088 967.576C708.651 964.504 701.952 962.968 692.992 962.968Z" fill="#FFF066"/>
<path d="M672.691 886.663C672.691 886.664 672.691 886.665 672.691 886.667C672.691 898.449 681.915 908 693.294 908C704.673 908 713.897 898.449 713.897 886.667C725.276 886.667 734.5 877.115 734.5 865.333C734.5 853.551 725.276 844 713.897 844C703.511 844 694.92 851.957 693.5 862.305C692.08 851.957 683.489 844 673.103 844C661.724 844 652.5 853.551 652.5 865.333C652.5 876.973 661.502 886.435 672.691 886.663Z" fill="#FFF066"/>
<rect x="695.5" y="867" width="5" height="33" rx="2.5" transform="rotate(-180 695.5 867)" fill="#FFF066"/>
</g>
<path d="M411.779 520.935C424.78 520.935 435.668 532.098 435.668 546.312V550.235L439.586 550.316C452.372 550.581 463 561.649 463 575.688C463 589.902 452.111 601.065 439.11 601.065C427.237 601.065 417.144 591.776 415.464 579.324H407.536C405.856 591.776 395.763 601.065 383.89 601.065C370.889 601.065 360 589.902 360 575.688C360 561.475 370.889 550.312 383.89 550.312H387.89V546.312C387.89 532.098 398.779 520.935 411.779 520.935Z" stroke="#FFF066" stroke-width="8"/>
<path d="M408.307 583.026C408.307 581.347 409.668 579.985 411.348 579.985C413.028 579.985 414.389 581.347 414.389 583.026V613.959C414.389 615.638 413.028 617 411.348 617C409.668 617 408.307 615.638 408.307 613.959V583.026Z" fill="#FFF066"/>
<path d="M327.779 682.935C340.78 682.935 351.668 694.098 351.668 708.312V712.235L355.586 712.316C368.372 712.581 379 723.649 379 737.688C379 751.902 368.111 763.065 355.11 763.065C343.237 763.065 333.144 753.776 331.464 741.324H323.536C321.856 753.776 311.763 763.065 299.89 763.065C286.889 763.065 276 751.902 276 737.688C276 723.475 286.889 712.312 299.89 712.312H303.89V708.312C303.89 694.098 314.779 682.935 327.779 682.935Z" stroke="#FFF066" stroke-width="8"/>
<path d="M324.307 745.026C324.307 743.347 325.668 741.985 327.348 741.985C329.028 741.985 330.389 743.347 330.389 745.026V775.959C330.389 777.638 329.028 779 327.348 779C325.668 779 324.307 777.638 324.307 775.959V745.026Z" fill="#FFF066"/>
<path d="M494.779 682.935C507.78 682.935 518.668 694.098 518.668 708.312V712.235L522.586 712.316C535.372 712.581 546 723.649 546 737.688C546 751.902 535.111 763.065 522.11 763.065C510.237 763.065 500.144 753.776 498.464 741.324H490.536C488.856 753.776 478.763 763.065 466.89 763.065C453.889 763.065 443 751.902 443 737.688C443 723.475 453.889 712.312 466.89 712.312H470.89V708.312C470.89 694.098 481.779 682.935 494.779 682.935Z" stroke="#FFF066" stroke-width="8"/>
<path d="M491.307 745.026C491.307 743.347 492.668 741.985 494.348 741.985C496.028 741.985 497.389 743.347 497.389 745.026V775.959C497.389 777.638 496.028 779 494.348 779C492.668 779 491.307 777.638 491.307 775.959V745.026Z" fill="#FFF066"/>
<path d="M579.779 520.935C592.78 520.935 603.668 532.098 603.668 546.312V550.235L607.586 550.316C620.372 550.581 631 561.649 631 575.688C631 589.902 620.111 601.065 607.11 601.065C595.237 601.065 585.144 591.776 583.464 579.324H575.536C573.856 591.776 563.763 601.065 551.89 601.065C538.889 601.065 528 589.902 528 575.688C528 561.475 538.889 550.312 551.89 550.312H555.89V546.312C555.89 532.098 566.779 520.935 579.779 520.935Z" stroke="#FFF066" stroke-width="8"/>
<path d="M576.307 583.026C576.307 581.347 577.668 579.985 579.348 579.985C581.028 579.985 582.389 581.347 582.389 583.026V613.959C582.389 615.638 581.028 617 579.348 617C577.668 617 576.307 615.638 576.307 613.959V583.026Z" fill="#FFF066"/>
<path d="M243.779 520.935C256.78 520.935 267.668 532.098 267.668 546.312V550.235L271.586 550.316C284.372 550.581 295 561.649 295 575.688C295 589.902 284.111 601.065 271.11 601.065C259.237 601.065 249.144 591.776 247.464 579.324H239.536C237.856 591.776 227.763 601.065 215.89 601.065C202.889 601.065 192 589.902 192 575.688C192 561.475 202.889 550.312 215.89 550.312H219.89V546.312C219.89 532.098 230.779 520.935 243.779 520.935Z" stroke="#FFF066" stroke-width="8"/>
<path d="M240.307 583.026C240.307 581.347 241.668 579.985 243.348 579.985C245.028 579.985 246.389 581.347 246.389 583.026V613.959C246.389 615.638 245.028 617 243.348 617C241.668 617 240.307 615.638 240.307 613.959V583.026Z" fill="#FFF066"/>
<path d="M579.779 358.935C592.78 358.935 603.668 370.098 603.668 384.312V388.235L607.586 388.316C620.372 388.581 631 399.649 631 413.688C631 427.902 620.111 439.065 607.11 439.065C595.237 439.065 585.144 429.776 583.464 417.324H575.536C573.856 429.776 563.763 439.065 551.89 439.065C538.889 439.065 528 427.902 528 413.688C528 399.475 538.889 388.312 551.89 388.312H555.89V384.312C555.89 370.098 566.779 358.935 579.779 358.935Z" stroke="#FFF066" stroke-width="8"/>
<path d="M576.307 421.026C576.307 419.347 577.668 417.985 579.348 417.985C581.028 417.985 582.389 419.347 582.389 421.026V451.959C582.389 453.638 581.028 455 579.348 455C577.668 455 576.307 453.638 576.307 451.959V421.026Z" fill="#FFF066"/>
<path d="M243.779 358.935C256.78 358.935 267.668 370.098 267.668 384.312V388.235L271.586 388.316C284.372 388.581 295 399.649 295 413.688C295 427.902 284.111 439.065 271.11 439.065C259.237 439.065 249.144 429.776 247.464 417.324H239.536C237.856 429.776 227.763 439.065 215.89 439.065C202.889 439.065 192 427.902 192 413.688C192 399.475 202.889 388.312 215.89 388.312H219.89V384.312C219.89 370.098 230.779 358.935 243.779 358.935Z" stroke="#FFF066" stroke-width="8"/>
<path d="M240.307 421.026C240.307 419.347 241.668 417.985 243.348 417.985C245.028 417.985 246.389 419.347 246.389 421.026V451.959C246.389 453.638 245.028 455 243.348 455C241.668 455 240.307 453.638 240.307 451.959V421.026Z" fill="#FFF066"/>
<path d="M411.779 358.935C424.78 358.935 435.668 370.098 435.668 384.312V388.235L439.586 388.316C452.372 388.581 463 399.649 463 413.688C463 427.902 452.111 439.065 439.11 439.065C427.237 439.065 417.144 429.776 415.464 417.324H407.536C405.856 429.776 395.763 439.065 383.89 439.065C370.889 439.065 360 427.902 360 413.688C360 399.475 370.889 388.312 383.89 388.312H387.89V384.312C387.89 370.098 398.779 358.935 411.779 358.935Z" stroke="#FFF066" stroke-width="8"/>
<path d="M408.307 421.026C408.307 419.347 409.668 417.985 411.348 417.985C413.028 417.985 414.389 419.347 414.389 421.026V451.959C414.389 453.638 413.028 455 411.348 455C409.668 455 408.307 453.638 408.307 451.959V421.026Z" fill="#FFF066"/>
<defs>
<clipPath id="clip0_31_1659">
<rect width="722" height="1022" fill="white" transform="translate(46 48)"/>
</clipPath>
</defs>
</svg>
